!!!OTL: Wilhelmus van Nassouwen. / d. Neue Form (Nieuwe wyze) des Geusenliedes.
!!!ARE: Europa, Mitteleuropa, Deutschland
!!!SCT: A0411
!!!TXL: @@NLD
!!!YEM: Copyright 1995, estate of Helmut Schaffrath.
**kern	**text
*M4/4	*
*met(c)	*
*k[f#]	*
*G:	*
{4d	Wilhel-
=1	=1
(4.g	.
8a)	.
2g	-mus
=2	=2
2a	van
2dd	Nas-
=3	=3
2b	-sou-
4a}	-wen
{4dd	Ben
=4	=4
2cc	ick
2b	van
=5	=5
(4.a	duyt-
8g)	.
(4.a	-ſchen
8b/)	.
=6	=6
2g	bloet.}
4r}	.
{4d	Het
=7	=7
(4.g	va-
8a)	.
2g	-der-
=8	=8
2a	-lant
2dd	ge-
=9	=9
2b	-trou-
4a}	-we
{4dd	Blijf
=10	=10
2cc	ick
2b	tot
=11	=11
(4.a	's_lands
8g)	.
(4.a	be-
8b/)	.
=12	=12
2g	-hoet,}
4r}	.
{4d	Een
=13	=13
(4g	prin-
4a)	.
(4b	-se
4cc)	.
=14	=14
(4.dd	van
8ee)	.
(4dd	O-
4cc)	.
=15	=15
2b/	-ran-
2a}	-gen,
=16	=16
{(4g	Ben
4a)	.
(4b	ick
4cc)	.
=17	=17
2dd	vry
8eeL	on-
8ddJ	.
8ccL	-ver-
8bJ	.
=18	=18
2.a}	-veert
{4d	Den
=19	=19
(4.g	ko-
8a)	.
2g	-ninck
=20	=20
2a	van
2dd	Hi-
=21	=21
2b/	-ſpangen
4a}	.
{4dd	Jck
=22	=22
2cc	al-
2b	-tijd
=23	=23
(4.a	heb
8g)	.
(4.a	ge-
8b)	.
=24	=24
2g	-eert.
4r}	.
==	==
!!!GTL: Einige historisch-politische Lieder
!!!AGN: Romanze, Ballade, Lied, Kriegslied
!! (=A0409D)Willems, Oude vlaemische liederen. No.33.
!!!ONB: ESAC (Essen Associative Code) Database: ALTDEU
!!!AMT: simple quadruple
!!!AIN: vox
!!!EED: Helmut Schaffrath
!!!EEV: 1.0
!!!URL-scan: https://rosdok.uni-rostock.de/mcrviewer/recordIdentifier/rosdok_ppn738218359/iview2/phys_0584.iview2?x=178.71856788692526&y=957.321781091392&scale=0.7083010262257697&rotation=0&layout=singlePageLayout
!!!ENC: Anna Maria Matuszewska
!!!EEV: 2024/15/03
*-	*-
